Flat-Remix-Blue/mimetypes/scalable/text-x-tex.svg

<svg xmlns="http://www.w3.org/2000/svg" xmlns:xlink="http://www.w3.org/1999/xlink" width="36pt" height="36pt" version="1.1" viewBox="0 0 36 36"> <defs> <clipPath id="clip1"> <path d="M 20 2 L 31 2 L 31 13 L 20 13 Z M 20 2"/> </clipPath> <clipPath id="clip2"> <path d="M 20.515625 2.625 L 30.328125 12.4375 L 22.023438 12.4375 C 21.292969 12.4375 20.515625 11.660156 20.515625 10.929688 Z M 20.515625 2.625"/> </clipPath> <image id="image6" width="36" height="36" xlink:href="data:image/png;base64,iVBORw0KGgoAAAANSUhEUgAAACQAAAAkCAYAAADhAJiYAAAABmJLR0QA/wD/AP+gvaeTAAAAmklEQVRYhe3T0QqCQBBG4aOtYEoUvf9Lildltl00C4tkbBeTIP+BAUEYP1YW1Pcqh53B9kbgaVPcwQF0tAmGSrMZ6AKcDQXw+AUVHEAtcAUaewYYgYmC3+cBCkAPnDJQMcoDVNnebgEqQnmAclTz4d0I3P4JStc9AjXvk4qLWQV53LLeEOl05gw4A3dgcPiuUkoppZRSSqk99gLWvSJpuDnlsAAAAABJRU5ErkJggg=="/> <clipPath id="clip3"> <path d="M 9 15 L 16 15 L 16 23 L 9 23 Z M 9 15"/> </clipPath> <clipPath id="clip4"> <path d="M 32.855469 19.9375 C 32.855469 28.144531 26.199219 34.789062 18 34.789062 C 9.800781 34.789062 3.144531 28.144531 3.144531 19.9375 C 3.144531 11.730469 9.800781 5.082031 18 5.082031 C 26.199219 5.082031 32.855469 11.730469 32.855469 19.9375 Z M 32.855469 19.9375"/> </clipPath> <clipPath id="clip5"> <path d="M 15 17 L 21 17 L 21 25 L 15 25 Z M 15 17"/> </clipPath> <clipPath id="clip6"> <path d="M 32.855469 19.9375 C 32.855469 28.144531 26.199219 34.789062 18 34.789062 C 9.800781 34.789062 3.144531 28.144531 3.144531 19.9375 C 3.144531 11.730469 9.800781 5.082031 18 5.082031 C 26.199219 5.082031 32.855469 11.730469 32.855469 19.9375 Z M 32.855469 19.9375"/> </clipPath> <clipPath id="clip7"> <path d="M 19 15 L 27 15 L 27 23 L 19 23 Z M 19 15"/> </clipPath> <clipPath id="clip8"> <path d="M 32.855469 19.9375 C 32.855469 28.144531 26.199219 34.789062 18 34.789062 C 9.800781 34.789062 3.144531 28.144531 3.144531 19.9375 C 3.144531 11.730469 9.800781 5.082031 18 5.082031 C 26.199219 5.082031 32.855469 11.730469 32.855469 19.9375 Z M 32.855469 19.9375"/> </clipPath> </defs> <g> <path style="fill:rgb(90.196%,90.196%,90.196%)" d="M 7.347656 3.152344 C 6.675781 3.152344 6.042969 3.785156 6.042969 4.457031 L 6.042969 31.847656 C 6.042969 32.480469 6.714844 33.152344 7.347656 33.152344 L 28.21875 33.152344 C 28.851562 33.152344 29.523438 32.480469 29.523438 31.847656 L 29.523438 11.632812 L 21.042969 3.152344 Z M 7.347656 3.152344"/> <g clip-path="url(#clip1)"> <g clip-path="url(#clip2)"> <use xlink:href="#image6"/> </g> </g> <path style="fill:rgb(100.000%,100.000%,100.000%)" d="M 21.042969 3.152344 L 29.523438 11.632812 L 22.347656 11.632812 C 21.714844 11.632812 21.042969 10.960938 21.042969 10.328125 Z M 21.042969 3.152344"/> <g clip-path="url(#clip3)"> <g clip-path="url(#clip4)"> <path style="fill:rgb(15.294%,16.470%,20.392%)" d="M 15.546875 15.429688 L 9.773438 15.429688 L 9.605469 17.652344 L 9.78125 17.652344 C 9.910156 15.984375 10.054688 15.695312 11.605469 15.695312 C 11.78125 15.695312 12.074219 15.695312 12.15625 15.695312 C 12.347656 15.722656 12.347656 15.847656 12.347656 16.078125 L 12.347656 21.550781 C 12.347656 21.914062 12.316406 22.023438 11.476562 22.023438 L 11.191406 22.023438 L 11.191406 22.265625 C 11.671875 22.253906 12.171875 22.246094 12.660156 22.246094 C 13.152344 22.246094 13.652344 22.261719 14.132812 22.265625 L 14.132812 22.023438 L 13.847656 22.023438 C 13.015625 22.023438 12.988281 21.914062 12.988281 21.550781 L 12.988281 16.078125 C 12.988281 15.855469 12.988281 15.738281 13.167969 15.695312 L 13.714844 15.695312 C 15.246094 15.695312 15.398438 15.984375 15.53125 17.652344 L 15.703125 17.652344"/> </g> </g> <g clip-path="url(#clip5)"> <g clip-path="url(#clip6)"> <path style="fill:rgb(15.294%,16.470%,20.392%)" d="M 20.5625 21.917969 L 20.382812 21.917969 C 20.164062 23.410156 20.035156 24.21875 18.273438 24.21875 L 16.886719 24.21875 C 16.488281 24.21875 16.472656 24.167969 16.472656 23.824219 L 16.472656 21.011719 L 17.414062 21.011719 C 18.355469 21.011719 18.445312 21.363281 18.445312 22.210938 L 18.609375 22.210938 L 18.609375 19.597656 L 18.445312 19.597656 C 18.445312 20.429688 18.355469 20.769531 17.414062 20.769531 L 16.472656 20.769531 L 16.472656 18.277344 C 16.472656 17.941406 16.488281 17.890625 16.886719 17.890625 L 18.253906 17.890625 C 19.800781 17.890625 19.984375 18.507812 20.121094 19.835938 L 20.304688 19.835938 L 20.0625 17.613281 L 15 17.613281 L 15 17.890625 C 15.710938 17.890625 15.824219 17.890625 15.824219 18.339844 L 15.824219 23.765625 C 15.824219 24.214844 15.710938 24.214844 15 24.214844 L 15 24.457031 L 20.199219 24.457031"/> </g> </g> <g clip-path="url(#clip7)"> <g clip-path="url(#clip8)"> <path style="fill:rgb(15.294%,16.470%,20.392%)" d="M 23.257812 18.464844 L 24.734375 16.3125 C 24.882812 16.105469 25.1875 15.671875 26.007812 15.65625 L 26.007812 15.414062 C 25.777344 15.433594 25.398438 15.433594 25.15625 15.433594 C 24.828125 15.433594 24.417969 15.433594 24.167969 15.414062 L 24.167969 15.65625 C 24.488281 15.6875 24.570312 15.890625 24.570312 16.050781 C 24.570312 16.171875 24.519531 16.253906 24.449219 16.351562 L 23.128906 18.277344 L 21.648438 16.101562 C 21.578125 15.988281 21.570312 15.960938 21.570312 15.929688 C 21.570312 15.839844 21.679688 15.667969 22.011719 15.65625 L 22.011719 15.414062 C 21.691406 15.433594 21.203125 15.433594 20.871094 15.433594 C 20.613281 15.433594 20.113281 15.433594 19.871094 15.414062 L 19.871094 15.65625 C 20.421875 15.65625 20.601562 15.675781 20.820312 15.988281 L 22.75 18.839844 L 21.007812 21.394531 C 20.582031 22.015625 19.933594 22.03125 19.742188 22.03125 L 19.742188 22.273438 C 19.96875 22.25 20.347656 22.25 20.589844 22.25 C 20.859375 22.25 21.328125 22.25 21.578125 22.273438 L 21.578125 22.03125 C 21.269531 22 21.179688 21.796875 21.179688 21.636719 C 21.179688 21.503906 21.226562 21.433594 21.277344 21.363281 L 22.878906 19.015625 L 24.617188 21.585938 C 24.695312 21.695312 24.695312 21.726562 24.695312 21.757812 C 24.695312 21.839844 24.605469 22.011719 24.253906 22.03125 L 24.253906 22.273438 C 24.574219 22.253906 25.0625 22.253906 25.394531 22.253906 C 25.652344 22.253906 26.152344 22.253906 26.394531 22.273438 L 26.394531 22.03125 C 25.753906 22.03125 25.652344 21.980469 25.457031 21.695312"/> </g> </g> </g> </svg>

<svg width="36pt" height="36pt" version="1.1" viewBox="0 0 36 36" xmlns="http://www.w3.org/2000/svg"><defs><filter id="a" x="-.192" y="-.192" width="1.384" height="1.384" color-interpolation-filters="sRGB"><feGaussianBlur stdDeviation="0.67843748"/></filter><clipPath id="g"><path d="m9 15h7v8h-7z"/></clipPath><clipPath id="f"><path d="m32.855 19.938c0 8.207-6.6562 14.852-14.855 14.852s-14.855-6.6445-14.855-14.852 6.6562-14.855 14.855-14.855 14.855 6.6484 14.855 14.855z"/></clipPath><clipPath id="e"><path d="m15 17h6v8h-6z"/></clipPath><clipPath id="d"><path d="m32.855 19.938c0 8.207-6.6562 14.852-14.855 14.852s-14.855-6.6445-14.855-14.852 6.6562-14.855 14.855-14.855 14.855 6.6484 14.855 14.855z"/></clipPath><clipPath id="c"><path d="m19 15h8v8h-8z"/></clipPath><clipPath id="b"><path d="m32.855 19.938c0 8.207-6.6562 14.852-14.855 14.852s-14.855-6.6445-14.855-14.852 6.6562-14.855 14.855-14.855 14.855 6.6484 14.855 14.855z"/></clipPath></defs><path d="m7.3477 3.1523c-0.67188 0-1.3047 0.63281-1.3047 1.3047v27.391c0 0.63281 0.67188 1.3047 1.3047 1.3047h20.871c0.63281 0 1.3047-0.67188 1.3047-1.3047v-20.215l-8.4805-8.4805z" fill="#e5e5e5"/><path d="m20.668 3.5272 8.4805 8.4805h-7.1758c-0.63281 0-1.3047-0.67187-1.3047-1.3047z" filter="url(#a)" opacity=".2"/><path d="m21.043 3.1523 8.4805 8.4805h-7.1758c-0.63281 0-1.3047-0.67187-1.3047-1.3047z" fill="#fff"/><g clip-path="url(#g)"><g clip-path="url(#f)"><path d="m15.547 15.43h-5.7734l-0.16797 2.2227h0.17578c0.12891-1.668 0.27344-1.957 1.8242-1.957h0.55078c0.19141 0.027344 0.19141 0.15234 0.19141 0.38281v5.4727c0 0.36328-0.03125 0.47266-0.87109 0.47266h-0.28516v0.24219c0.48047-0.011719 0.98047-0.019531 1.4688-0.019531 0.49219 0 0.99219 0.015625 1.4727 0.019531v-0.24219h-0.28516c-0.83203 0-0.85938-0.10938-0.85938-0.47266v-5.4727c0-0.22266 0-0.33984 0.17969-0.38281h0.54688c1.5312 0 1.6836 0.28906 1.8164 1.957h0.17188" fill="#262933"/></g></g><g clip-path="url(#e)"><g clip-path="url(#d)"><path d="m20.562 21.918h-0.17969c-0.21875 1.4922-0.34766 2.3008-2.1094 2.3008h-1.3867c-0.39844 0-0.41406-0.050781-0.41406-0.39453v-2.8125h0.94141c0.94141 0 1.0312 0.35156 1.0312 1.1992h0.16406v-2.6133h-0.16406c0 0.83203-0.089843 1.1719-1.0312 1.1719h-0.94141v-2.4922c0-0.33594 0.015625-0.38672 0.41406-0.38672h1.3672c1.5469 0 1.7305 0.61719 1.8672 1.9453h0.18359l-0.24219-2.2227h-5.0625v0.27734c0.71094 0 0.82422 0 0.82422 0.44922v5.4258c0 0.44922-0.11328 0.44922-0.82422 0.44922v0.24219h5.1992" fill="#262933"/></g></g><g clip-path="url(#c)"><g clip-path="url(#b)"><path d="m23.258 18.465 1.4766-2.1523c0.14844-0.20703 0.45312-0.64062 1.2734-0.65625v-0.24219c-0.23047 0.019532-0.60937 0.019532-0.85156 0.019532-0.32812 0-0.73828 0-0.98828-0.019532v0.24219c0.32031 0.03125 0.40234 0.23438 0.40234 0.39453 0 0.12109-0.050781 0.20312-0.12109 0.30078l-1.3203 1.9258-1.4805-2.1758c-0.070313-0.11328-0.078126-0.14062-0.078126-0.17187 0-0.089844 0.10938-0.26172 0.44141-0.27344v-0.24219c-0.32031 0.019532-0.80859 0.019532-1.1406 0.019532-0.25781 0-0.75781 0-1-0.019532v0.24219c0.55078 0 0.73047 0.019531 0.94922 0.33203l1.9297 2.8516-1.7422 2.5547c-0.42578 0.62109-1.0742 0.63672-1.2656 0.63672v0.24219c0.22656-0.023438 0.60547-0.023438 0.84766-0.023438 0.26953 0 0.73828 0 0.98828 0.023438v-0.24219c-0.30859-0.03125-0.39844-0.23438-0.39844-0.39453 0-0.13281 0.046874-0.20312 0.097656-0.27344l1.6016-2.3477 1.7383 2.5703c0.078124 0.10937 0.078124 0.14062 0.078124 0.17187 0 0.082032-0.089843 0.25391-0.44141 0.27344v0.24219c0.32031-0.019532 0.80859-0.019532 1.1406-0.019532 0.25781 0 0.75781 0 1 0.019532v-0.24219c-0.64062 0-0.74219-0.050781-0.9375-0.33594" fill="#262933"/></g></g></svg>
